X: 2
T: The Addams Family
S: PDF from Will Wheeler
Z: Transcription: Alina Larson; chords: Will Wheeler ?
R: Jig
M: 6/8
L: 1/8
K: G
D3|:G2B A2G|EA2- A2G|F2A G2E|DG2- G2D|
G2B A2G|EA2- A2G|F2D E2F|1 G3 D3:|2 G3 DEF||
|:Gz2 z3|z3 EF^G|Az2 z3|z3 EF^G|
Az2 EF^G|Az2 DEF|Gz2 z3|1 z3 DEF:|2 z3|]

